icons/Appium-Light.svg

<?xml version="1.0" encoding="UTF-8"?>
<svg id="appium" width="256" height="256" fill="none" title="Appium" version="1.1" viewBox="0 0 256 256" xmlns="http://www.w3.org/2000/svg">
 <style>#appium {
    rect {fill: #15191C}

    @media (prefers-color-scheme: light) {
        rect {fill: #F4F2ED}
    }
}</style>
 <rect width="256" height="256" rx="40" fill="#f4f2ed"/>
 <path d="m168.39 120.56c-1.02 2.421-2.151 4.786-3.395 7.094-13.691-17.427-33.654-28.812-55.624-31.722-3.714-0.4856-7.455-0.7296-11.2-0.7305-19.786-0.0296-38.958 6.8733-54.184 19.508 2.1161-13.361 7.3904-26.024 15.384-36.937 7.9941-10.913 18.477-19.76 30.578-25.807 12.102-6.0469 25.47-9.1185 38.998-8.9596 13.526 0.1589 26.82 3.5437 38.776 9.8732v0.0578c1.801 4.0657 3.284 8.2652 4.435 12.561 4.933 18.259 3.607 37.646-3.768 55.062z" fill="#FCBA11"/>
 <path d="m158.04 207.62c-12.535 4.747-26.014 6.462-39.338 5.005-13.324-1.456-26.114-6.042-37.328-13.383-11.214-7.342-20.532-17.231-27.196-28.861-6.6632-11.629-10.482-24.67-11.145-38.056l0.0315-0.042c11.441-16.146 28.177-27.774 47.3-32.863 3.6167-0.9697 7.2929-1.7017 11.005-2.1916 2.596-0.3504 5.18-0.5676 7.752-0.6517-4.184 10.493-6.235 21.715-6.034 33.01s2.651 22.437 7.206 32.775c4.555 10.337 11.124 19.664 19.324 27.435s17.865 13.83 28.433 17.823h-0.011z" fill="#61C2D9"/>
 <path d="m213 128.07c0.012 12.521-2.748 24.891-8.082 36.22s-13.109 21.336-22.768 29.305c-3.248 2.691-6.969 5.471-8.671 6.307-11.667-1.186-22.965-4.755-33.195-10.487-10.23-5.731-19.174-13.503-26.277-22.833-1.576-2.078-3.06-4.239-4.451-6.485 20.395-2.756 39.099-12.815 52.643-28.31s21.01-35.377 21.013-55.957c-6e-3 -4.4492-0.358-8.8912-1.051-13.286 9.654 7.9721 17.425 17.981 22.757 29.309 5.332 11.329 8.092 23.696 8.082 36.217z" fill="#EC366D"/>
 <path d="m213 128.08c0.012 12.522-2.748 24.891-8.082 36.22s-13.109 21.337-22.768 29.306c-3.248 2.69-6.969 5.465-8.666 6.306-11.666-1.185-22.964-4.753-33.194-10.484s-19.174-13.501-26.278-22.83c-1.576-2.078-3.06-4.24-4.451-6.486 19.648 6.117 40.848 4.903 59.669-3.418 18.821-8.32 33.988-23.183 42.687-41.832l0.048-0.094c0.688 4.404 1.034 8.854 1.035 13.312z" fill="url(#linearGradient1)" style="mix-blend-mode:multiply"/>
 <path d="m82.458 154.27c-0.9278 19.043 4.5509 37.848 15.562 53.412-15.629-5.873-29.182-16.219-38.966-29.747-9.7849-13.529-15.368-29.639-16.053-46.321 0 0.221 0.042 0.452 0.0631 0.678 11.441-16.146 28.177-27.774 47.3-32.863 3.6166-0.9696 7.2928-1.7017 11.005-2.1915 2.596-0.3504 5.18-0.5676 7.752-0.6517-15.989 15.075-25.537 35.743-26.651 57.69l-0.0105-6e-3z" fill="#61C2D9"/>
 <path d="m82.458 154.27c-0.9278 19.043 4.5509 37.848 15.562 53.412-15.629-5.873-29.182-16.219-38.966-29.747-9.7849-13.529-15.368-29.639-16.053-46.321 0 0.221 0.042 0.452 0.0631 0.678 11.441-16.146 28.177-27.774 47.3-32.863 3.6166-0.9696 7.2928-1.7017 11.005-2.1915 2.596-0.3504 5.18-0.5676 7.752-0.6517-15.989 15.075-25.537 35.743-26.651 57.69l-0.0105-6e-3z" fill="url(#linearGradient2)" style="mix-blend-mode:multiply"/>
 <path d="m168.39 120.56c-1.02 2.421-2.151 4.786-3.395 7.094-5.043-21.582-18.323-40.339-37.004-52.266-3.161-2.0083-6.449-3.8095-9.844-5.3921-13.792-6.463-29.074-9.0796-44.23-7.5732 12.946-10.677 28.763-17.281 45.458-18.979 16.694-1.6976 33.518 1.5872 48.347 9.4399v0.0578c1.802 4.0656 3.285 8.2652 4.436 12.561 4.932 18.258 3.606 37.641-3.768 55.057z" fill="url(#linearGradient3)" style="mix-blend-mode:multiply"/>
 <path d="m213 128.08c0.012 12.522-2.748 24.891-8.082 36.22s-13.109 21.337-22.768 29.306c-3.248 2.69-6.969 5.465-8.666 6.306-11.666-1.185-22.964-4.753-33.194-10.484s-19.174-13.501-26.278-22.83c-1.576-2.078-3.06-4.24-4.451-6.486 19.648 6.117 40.848 4.903 59.669-3.418 18.821-8.32 33.988-23.183 42.687-41.832l0.048-0.094c0.688 4.404 1.034 8.854 1.035 13.312z" fill="url(#linearGradient1)" style="mix-blend-mode:multiply"/>
 <linearGradient id="linearGradient1" x1="209.35" x2="81.113" y1="151.45" y2="196.84" gradientUnits="userSpaceOnUse">
  <stop stop-color="#EE376D" stop-opacity="0" offset="0"/>
  <stop stop-color="#E9376D" stop-opacity=".06" offset=".14"/>
  <stop stop-color="#DB386E" stop-opacity=".22" offset=".37"/>
  <stop stop-color="#C6396F" stop-opacity=".48" offset=".68"/>
  <stop stop-color="#AB3B70" stop-opacity=".8" offset="1"/>
 </linearGradient>
 <linearGradient id="linearGradient2" x1="99.117" x2="135.15" y1="184.15" y2="-19.233" gradientUnits="userSpaceOnUse">
  <stop stop-color="#65C9D3" stop-opacity="0" offset="0"/>
  <stop stop-color="#65C9D3" offset="1"/>
 </linearGradient>
 <linearGradient id="linearGradient3" x1="43" x2="213.02" y1="128.1" y2="128.1" gradientUnits="userSpaceOnUse">
  <stop stop-color="#FFCA04" stop-opacity="0" offset="0"/>
  <stop stop-color="#FFCA04" stop-opacity=".07" offset=".1"/>
  <stop stop-color="#FFCA04" stop-opacity=".25" offset=".31"/>
  <stop stop-color="#FFCA04" stop-opacity=".54" offset=".59"/>
  <stop stop-color="#FFCA04" stop-opacity=".94" offset=".95"/>
  <stop stop-color="#FFCA04" offset="1"/>
 </linearGradient>
</svg>

<?xml version="1.0" encoding="UTF-8" standalone="no"?>
<svg
   width="256"
   height="256"
   title="Appium"
   viewBox="0 0 256 256"
   fill="none"
   id="appium"
   version="1.1"
   sodipodi:docname="Appium-Light.svg"
   inkscape:version="1.4.2 (ebf0e940, 2025-05-08)"
   xmlns:inkscape="http://www.inkscape.org/namespaces/inkscape"
   xmlns:sodipodi="http://sodipodi.sourceforge.net/DTD/sodipodi-0.dtd"
   xmlns="http://www.w3.org/2000/svg"
   xmlns:svg="http://www.w3.org/2000/svg">
  <defs
     id="defs25" />
  <sodipodi:namedview
     id="namedview25"
     pagecolor="#ffffff"
     bordercolor="#000000"
     borderopacity="0.25"
     inkscape:showpageshadow="2"
     inkscape:pageopacity="0.0"
     inkscape:pagecheckerboard="0"
     inkscape:deskcolor="#d1d1d1"
     inkscape:zoom="1.523871"
     inkscape:cx="75.793819"
     inkscape:cy="137.15072"
     inkscape:window-width="1512"
     inkscape:window-height="921"
     inkscape:window-x="0"
     inkscape:window-y="61"
     inkscape:window-maximized="0"
     inkscape:current-layer="appium" />
  <style
     id="style1">
#appium {
    rect {fill: #15191C}

    @media (prefers-color-scheme: light) {
        rect {fill: #F4F2ED}
    }
}
</style>
  <rect
     width="256"
     height="256"
     rx="40"
     fill="#15191C"
     id="rect1"
     style="fill:#f4f2ed;fill-opacity:1" />
  <path
     d="M168.386 120.56C167.366 122.981 166.235 125.346 164.991 127.654C151.3 110.227 131.337 98.842 109.367 95.9322C105.653 95.4466 101.912 95.2026 98.1671 95.2017C78.3808 95.1721 59.2092 102.075 43.9828 114.71C46.0989 101.349 51.3732 88.6858 59.3673 77.7728C67.3614 66.8599 77.8446 58.0124 89.9455 51.9655C102.047 45.9186 115.416 42.847 128.943 43.0059C142.469 43.1648 155.763 46.5496 167.719 52.8791V52.9369C169.52 57.0026 171.003 61.2021 172.154 65.4975C177.087 83.7568 175.761 103.143 168.386 120.56Z"
     fill="#FCBA11"
     id="path1" />
  <path
     d="M158.043 207.622C145.508 212.369 132.029 214.084 118.705 212.627C105.381 211.171 92.5908 206.585 81.3772 199.244C70.1636 191.902 60.8449 182.013 54.1817 170.383C47.5185 158.754 43.6996 145.713 43.0368 132.327L43.0683 132.285C54.5094 116.139 71.2451 104.511 90.3679 99.4219C93.9846 98.4522 97.6608 97.7202 101.373 97.2303C103.969 96.8799 106.553 96.6627 109.125 96.5786C104.941 107.072 102.89 118.294 103.091 129.589C103.292 140.884 105.742 152.026 110.297 162.364C114.852 172.701 121.421 182.028 129.621 189.799C137.821 197.57 147.486 203.629 158.054 207.622H158.043Z"
     fill="#61C2D9"
     id="path2" />
  <path
     d="M213 128.07C213.012 140.591 210.252 152.961 204.918 164.29C199.584 175.619 191.809 185.626 182.15 193.595C178.902 196.286 175.181 199.066 173.479 199.902C161.812 198.716 150.514 195.147 140.284 189.415C130.054 183.684 121.11 175.912 114.007 166.582C112.431 164.504 110.947 162.343 109.556 160.097C129.951 157.341 148.655 147.282 162.199 131.787C175.743 116.292 183.209 96.4103 183.212 75.8299C183.206 71.3807 182.854 66.9387 182.161 62.5439C191.815 70.516 199.586 80.5248 204.918 91.8533C210.25 103.182 213.01 115.549 213 128.07Z"
     fill="#EC366D"
     id="path3" />
  <path
     d="M213 128.075C213.012 140.597 210.252 152.966 204.918 164.295C199.584 175.624 191.809 185.632 182.15 193.601C178.902 196.291 175.181 199.066 173.484 199.907C161.818 198.722 150.52 195.154 140.29 189.423C130.06 183.692 121.116 175.922 114.012 166.593C112.436 164.515 110.952 162.353 109.561 160.107C129.209 166.224 150.409 165.01 169.23 156.689C188.051 148.369 203.218 133.506 211.917 114.857L211.965 114.763C212.653 119.167 212.999 123.617 213 128.075Z"
     fill="url(#linearGradient1)"
     style="mix-blend-mode:multiply"
     id="path4" />
  <path
     d="M82.4584 154.268C81.5306 173.311 87.0093 192.116 98.0199 207.68C82.391 201.807 68.8382 191.461 59.0534 177.933C49.2685 164.404 43.685 148.294 43 131.612C43 131.833 43.042 132.064 43.0631 132.29C54.5041 116.144 71.2398 104.516 90.3627 99.4271C93.9793 98.4575 97.6555 97.7254 101.368 97.2356C103.964 96.8852 106.548 96.668 109.12 96.5839C93.131 111.659 83.5831 132.327 82.4689 154.274L82.4584 154.268Z"
     fill="#61C2D9"
     id="path5" />
  <path
     d="M82.4584 154.268C81.5306 173.311 87.0093 192.116 98.0199 207.68C82.391 201.807 68.8382 191.461 59.0534 177.933C49.2685 164.404 43.685 148.294 43 131.612C43 131.833 43.042 132.064 43.0631 132.29C54.5041 116.144 71.2398 104.516 90.3627 99.4271C93.9793 98.4575 97.6555 97.7254 101.368 97.2356C103.964 96.8852 106.548 96.668 109.12 96.5839C93.131 111.659 83.5831 132.327 82.4689 154.274L82.4584 154.268Z"
     fill="url(#linearGradient2)"
     style="mix-blend-mode:multiply"
     id="path6" />
  <path
     d="M168.386 120.56C167.366 122.981 166.235 125.346 164.991 127.654C159.948 106.072 146.668 87.3153 127.987 75.3884C124.826 73.3801 121.538 71.5789 118.143 69.9963C104.351 63.5333 89.0694 60.9167 73.9129 62.4231C86.8585 51.7459 102.676 45.142 119.371 43.4444C136.065 41.7468 152.889 45.0316 167.718 52.8843V52.9421C169.52 57.0077 171.003 61.2073 172.154 65.5028C177.086 83.7604 175.76 103.144 168.386 120.56Z"
     fill="url(#linearGradient3)"
     style="mix-blend-mode:multiply"
     id="path7" />
  <path
     d="M213 128.075C213.012 140.597 210.252 152.966 204.918 164.295C199.584 175.624 191.809 185.632 182.15 193.601C178.902 196.291 175.181 199.066 173.484 199.907C161.818 198.722 150.52 195.154 140.29 189.423C130.06 183.692 121.116 175.922 114.012 166.593C112.436 164.515 110.952 162.353 109.561 160.107C129.209 166.224 150.409 165.01 169.23 156.689C188.051 148.369 203.218 133.506 211.917 114.857L211.965 114.763C212.653 119.167 212.999 123.617 213 128.075Z"
     fill="url(#linearGradient4)"
     style="mix-blend-mode:multiply"
     id="path8" />
  <linearGradient
     id="linearGradient1"
     x1="209.347"
     y1="151.446"
     x2="81.113"
     y2="196.843"
     gradientUnits="userSpaceOnUse">
    <stop
       stop-color="#EE376D"
       stop-opacity="0"
       id="stop8" />
    <stop
       offset="0.14"
       stop-color="#E9376D"
       stop-opacity="0.06"
       id="stop9" />
    <stop
       offset="0.37"
       stop-color="#DB386E"
       stop-opacity="0.22"
       id="stop10" />
    <stop
       offset="0.68"
       stop-color="#C6396F"
       stop-opacity="0.48"
       id="stop11" />
    <stop
       offset="1"
       stop-color="#AB3B70"
       stop-opacity="0.8"
       id="stop12" />
  </linearGradient>
  <linearGradient
     id="linearGradient2"
     x1="99.1172"
     y1="184.149"
     x2="135.152"
     y2="-19.2334"
     gradientUnits="userSpaceOnUse">
    <stop
       stop-color="#65C9D3"
       stop-opacity="0"
       id="stop13" />
    <stop
       offset="1"
       stop-color="#65C9D3"
       id="stop14" />
  </linearGradient>
  <linearGradient
     id="linearGradient3"
     x1="43"
     y1="128.098"
     x2="213.025"
     y2="128.098"
     gradientUnits="userSpaceOnUse">
    <stop
       stop-color="#FFCA04"
       stop-opacity="0"
       id="stop15" />
    <stop
       offset="0.1"
       stop-color="#FFCA04"
       stop-opacity="0.07"
       id="stop16" />
    <stop
       offset="0.31"
       stop-color="#FFCA04"
       stop-opacity="0.25"
       id="stop17" />
    <stop
       offset="0.59"
       stop-color="#FFCA04"
       stop-opacity="0.54"
       id="stop18" />
    <stop
       offset="0.95"
       stop-color="#FFCA04"
       stop-opacity="0.94"
       id="stop19" />
    <stop
       offset="1"
       stop-color="#FFCA04"
       id="stop20" />
  </linearGradient>
  <linearGradient
     id="linearGradient4"
     x1="209.347"
     y1="151.446"
     x2="81.113"
     y2="196.843"
     gradientUnits="userSpaceOnUse">
    <stop
       stop-color="#EE376D"
       stop-opacity="0"
       id="stop21" />
    <stop
       offset="0.14"
       stop-color="#E9376D"
       stop-opacity="0.06"
       id="stop22" />
    <stop
       offset="0.37"
       stop-color="#DB386E"
       stop-opacity="0.22"
       id="stop23" />
    <stop
       offset="0.68"
       stop-color="#C6396F"
       stop-opacity="0.48"
       id="stop24" />
    <stop
       offset="1"
       stop-color="#AB3B70"
       stop-opacity="0.8"
       id="stop25" />
  </linearGradient>
</svg>
